resources/svg/regular/expand-alt.svg

<svg xmlns="http://www.w3.org/2000/svg" fill="currentColor" stroke="none" viewBox="0 0 24 24"><path d="M5 12H3v9h9v-2H5zm7-7h7v7h2V3h-9z"/></svg>

<svg xmlns="http://www.w3.org/2000/svg" fill="currentColor" stroke="none" viewBox="0 0 24 24"><path d="M5 12L3 12 3 21 12 21 12 19 5 19zM12 5L19 5 19 12 21 12 21 3 12 3z"/></svg>
